icons/lines/safe-home.svg

<svg xmlns="http://www.w3.org/2000/svg" width="24" height="24" viewBox="0 0 24 24" fill="none" stroke="currentColor" stroke-width="2" stroke-linecap="round" stroke-linejoin="round" >
  <path d="M22.9998 15.37V17.5601C22.9998 20.0001 21.2198 22.3 18.7998 22.97C18.6298 23.01 18.4499 23.01 18.2899 22.97C17.1099 22.65 16.0698 21.93 15.3398 21C14.5498 20.02 14.0898 18.8101 14.0898 17.5601V15.37C14.0898 14.95 14.3998 14.49 14.7798 14.33L17.5598 13.1899C18.1898 12.9399 18.8898 12.9399 19.5198 13.1899L20.5198 13.6L22.3098 14.33C22.6898 14.49 22.9998 14.95 22.9998 15.37Z"/>
  <path d="M20.9498 11.0101L20.5198 13.6L19.5198 13.19C18.8898 12.94 18.1898 12.94 17.5598 13.19L14.7798 14.33C14.3998 14.49 14.0898 14.95 14.0898 15.37V17.5601C14.0898 18.8101 14.5498 20.02 15.3398 21H6.17979C4.80979 21 3.5198 19.9101 3.2898 18.5601L2.02979 11.0101C1.86979 10.0801 2.33978 8.83004 3.07978 8.24004L9.6598 2.98003C10.6698 2.17003 12.3098 2.17004 13.3198 2.99004L19.8998 8.24004C20.6298 8.83004 21.1098 10.0801 20.9498 11.0101Z"/>
  </svg>

<svg xmlns="http://www.w3.org/2000/svg" width="24" height="24" viewBox="0 0 24 24" fill="none" stroke="currentColor" stroke-width="2" stroke-linecap="round" stroke-linejoin="round">
  <path d="M14.78 14.33c-.38.16-.69.62-.69 1.04" />
  <path d="M19.52 13.19a2.66 2.66 0 0 0-1.96 0" />
  <path d="m20.52 13.6.43-2.59c.16-.93-.32-2.18-1.05-2.77l-6.58-5.25c-1.01-.82-2.65-.82-3.66-.01L3.08 8.24c-.74.59-1.21 1.84-1.05 2.77l1.26 7.55C3.52 19.91 4.81 21 6.18 21h9.16c-.79-.98-1.25-2.19-1.25-3.44v-2.19c0-.42.31-.88.69-1.04l2.78-1.14a2.66 2.66 0 0 1 1.96 0zl1.79.73c.38.16.69.62.69 1.04v2.19c0 2.44-1.78 4.74-4.2 5.41a1 1 0 0 1-.51 0A5.7 5.7 0 0 1 15.34 21c-.79-.98-1.25-2.19-1.25-3.44" />
</svg>
